web/assets/img/functions/980_1-half.svg

<svg width="512" height="512" viewBox="0 0 512 512" fill="none" xmlns="http://www.w3.org/2000/svg">
    <path d="M14.4718 261.916H35.7388L67.6099 241.756L109.912 263.776L147.577 245.233L190.459 263.776L233.919 241.756L269.557 266.384L307.513 242.351L350.104 263.776L388.06 241.756L430.941 263.776L464.261 244.943L485.352 242.351L499.12 263.722V329.339L456.897 365.458L399.897 387.616L106.204 383.917L32.3721 354.622L11.7188 323.319L14.4718 261.916Z"
          fill="#12A71E"/>
    <path d="M401 131.5H210V95.5C210 92.8478 208.946 90.3043 207.071 88.4289C205.196 86.5536 202.652 85.5 200 85.5H128C125.348 85.5 122.804 86.5536 120.929 88.4289C119.054 90.3043 118 92.8478 118 95.5V131.5H111C81.8367 131.534 53.8778 143.135 33.2563 163.756C12.6347 184.378 1.0344 212.337 1 241.5V287.5C1.03176 316.664 12.6312 344.625 33.2533 365.247C53.8755 385.869 81.8359 397.468 111 397.5H118V416.5C118 419.152 119.054 421.696 120.929 423.571C122.804 425.446 125.348 426.5 128 426.5H200C202.652 426.5 205.196 425.446 207.071 423.571C208.946 421.696 210 419.152 210 416.5V397.5H302V416.5C302 419.152 303.054 421.696 304.929 423.571C306.804 425.446 309.348 426.5 312 426.5H384C386.652 426.5 389.196 425.446 391.071 423.571C392.946 421.696 394 419.152 394 416.5V397.5H401C430.164 397.468 458.125 385.869 478.747 365.247C499.369 344.625 510.968 316.664 511 287.5V241.5C510.966 212.337 499.365 184.378 478.744 163.756C458.122 143.135 430.163 131.534 401 131.5ZM118 377.5H111C87.1386 377.474 64.2622 367.983 47.3896 351.11C30.5171 334.238 21.0265 311.361 21 287.5V241.5C21.0265 217.639 30.5171 194.762 47.3896 177.89C64.2622 161.017 87.1386 151.526 111 151.5H118V377.5ZM138 105.5H190V131.5H138V105.5ZM190 406.5H138V397.5H190V406.5ZM138 377.5V151.5H373V377.5H138ZM374 406.5H322V397.5H374V406.5ZM491 287.5C490.974 311.361 481.483 334.238 464.61 351.11C447.738 367.983 424.861 377.474 401 377.5H393V151.5H401C424.861 151.526 447.738 161.017 464.61 177.89C481.483 194.762 490.974 217.639 491 241.5V287.5Z"
          fill="#282828"/>
    <path d="M3.94653 263.07C2.86653 261.99 1.90653 261.04 1.00653 260.23V237.42C9.00653 239.84 14.0965 244.93 18.0965 248.93C23.0165 253.83 25.3965 256 31.0165 256C36.6365 256 39.0365 253.83 43.9365 248.93C49.3965 243.47 56.8665 236 71.0065 236C85.1329 236 92.6021 243.455 98.0707 248.914L98.0865 248.93C103.007 253.83 105.397 256 111.007 256C116.617 256 119.007 253.83 123.937 248.93C129.387 243.47 136.877 236 151.007 236C165.109 236 172.578 243.441 178.055 248.898L178.087 248.93C183.007 253.83 185.407 256 191.007 256C196.607 256 199.007 253.83 203.937 248.93C209.387 243.47 216.887 236 231.007 236C245.127 236 252.597 243.47 258.057 248.93C259.147 250.02 260.107 250.97 261.007 251.78L261.026 274.58C253.026 272.16 247.937 267.07 243.937 263.07C239.007 258.17 236.627 256 231.007 256C225.387 256 222.977 258.17 218.077 263.07L218.053 263.093C212.596 268.551 205.147 276 191.007 276C176.847 276 169.377 268.53 163.927 263.07C159.007 258.17 156.627 256 151.007 256C145.387 256 142.977 258.17 138.077 263.07C132.627 268.53 125.157 276 111.007 276C96.8565 276 89.3865 268.53 83.9265 263.07C78.9965 258.17 76.6165 256 70.9965 256C65.3765 256 62.9765 258.17 58.0765 263.07C52.6165 268.53 45.1365 276 31.0065 276C16.8765 276 9.40653 268.53 3.94653 263.07Z"
          fill="#282828"/>
    <path d="M163.943 263.07C162.863 261.99 161.903 261.04 161.003 260.23V237.42C169.003 239.84 174.093 244.93 178.093 248.93C183.013 253.83 185.393 256 191.013 256C196.633 256 199.033 253.83 203.933 248.93C209.393 243.47 216.863 236 231.003 236C245.129 236 252.598 243.455 258.067 248.914L258.083 248.93C263.003 253.83 265.393 256 271.003 256C276.613 256 279.003 253.83 283.933 248.93C289.383 243.47 296.873 236 311.003 236C325.105 236 332.574 243.441 338.051 248.898L338.083 248.93L323.923 263.07C319.003 258.17 316.623 256 311.003 256C305.383 256 302.973 258.17 298.073 263.07C292.623 268.53 285.153 276 271.003 276C256.853 276 249.383 268.53 243.923 263.07C238.993 258.17 236.613 256 230.993 256C225.373 256 222.973 258.17 218.073 263.07C212.613 268.53 205.133 276 191.003 276C176.873 276 169.403 268.53 163.943 263.07Z"
          fill="#282828"/>
    <path d="M323.933 263.07C322.853 261.99 321.893 261.04 320.993 260.23V237.42C328.993 239.84 334.083 244.93 338.083 248.93C343.003 253.83 345.383 256 351.003 256C356.623 256 359.023 253.83 363.923 248.93C369.383 243.47 376.853 236 390.993 236C405.12 236 412.589 243.455 418.058 248.914L418.073 248.93C422.993 253.83 425.383 256 430.993 256C436.603 256 438.993 253.83 443.923 248.93C449.373 243.47 456.863 236 470.993 236C485.096 236 492.565 243.441 498.042 248.898L498.073 248.93C502.993 253.83 505.393 256 510.993 256V276C496.833 276 489.363 268.53 483.913 263.07C478.993 258.17 476.613 256 470.993 256C465.373 256 462.963 258.17 458.063 263.07C452.613 268.53 445.143 276 430.993 276C416.843 276 409.373 268.53 403.913 263.07C398.983 258.17 396.603 256 390.983 256C385.363 256 382.963 258.17 378.063 263.07C372.603 268.53 365.123 276 350.993 276C336.863 276 329.393 268.53 323.933 263.07Z"
          fill="#282828"/>
</svg>

<?xml version="1.0" encoding="utf-8"?>
<!-- Generator: Adobe Illustrator 28.2.0, SVG Export Plug-In . SVG Version: 6.00 Build 0)  -->
<svg version="1.1" id="Calque_1" xmlns="http://www.w3.org/2000/svg" xmlns:xlink="http://www.w3.org/1999/xlink" x="0px" y="0px"
	 viewBox="0 0 512 512" style="enable-background:new 0 0 512 512;" xml:space="preserve">
<style type="text/css">
	.st0{fill:#33B0DF;}
	.st1{fill:#282828;}
</style>
<path class="st0" d="M14.5,261.9h21.3l31.9-20.2l42.3,22l37.7-18.5l42.9,18.5l43.5-22l35.6,24.6l38-24l42.6,21.4l38-22l42.9,22
	l33.3-18.8l21.1-2.6l13.8,21.4v65.6l-42.2,36.1l-57,22.2l-293.7-3.7l-73.8-29.3l-20.7-31.3L14.5,261.9z"/>
<path class="st1" d="M401,131.5H210v-36c0-2.7-1.1-5.2-2.9-7.1c-1.9-1.9-4.4-2.9-7.1-2.9h-72c-2.7,0-5.2,1.1-7.1,2.9
	c-1.9,1.9-2.9,4.4-2.9,7.1v36h-7c-29.2,0-57.1,11.6-77.7,32.3C12.6,184.4,1,212.3,1,241.5v46c0,29.2,11.6,57.1,32.3,77.7
	c20.6,20.6,48.6,32.2,77.7,32.3h7v19c0,2.7,1.1,5.2,2.9,7.1s4.4,2.9,7.1,2.9h72c2.7,0,5.2-1.1,7.1-2.9s2.9-4.4,2.9-7.1v-19h92v19
	c0,2.7,1.1,5.2,2.9,7.1s4.4,2.9,7.1,2.9h72c2.7,0,5.2-1.1,7.1-2.9s2.9-4.4,2.9-7.1v-19h7c29.2,0,57.1-11.6,77.7-32.3
	c20.6-20.6,32.2-48.6,32.3-77.7v-46c0-29.2-11.6-57.1-32.3-77.7C458.1,143.1,430.2,131.5,401,131.5z M118,377.5h-7
	c-23.9,0-46.7-9.5-63.6-26.4C30.5,334.2,21,311.4,21,287.5v-46c0-23.9,9.5-46.7,26.4-63.6c16.9-16.9,39.7-26.4,63.6-26.4h7V377.5z
	 M138,105.5h52v26h-52V105.5z M190,406.5h-52v-9h52V406.5z M138,377.5v-226h235v226H138z M374,406.5h-52v-9h52V406.5z M491,287.5
	c0,23.9-9.5,46.7-26.4,63.6c-16.9,16.9-39.7,26.4-63.6,26.4h-8v-226h8c23.9,0,46.7,9.5,63.6,26.4c16.9,16.9,26.4,39.7,26.4,63.6
	V287.5z"/>
<path class="st1" d="M3.9,263.1c-1.1-1.1-2-2-2.9-2.8v-22.8c8,2.4,13.1,7.5,17.1,11.5c4.9,4.9,7.3,7.1,12.9,7.1s8-2.2,12.9-7.1
	C49.4,243.5,56.9,236,71,236c14.1,0,21.6,7.5,27.1,12.9l0,0c4.9,4.9,7.3,7.1,12.9,7.1c5.6,0,8-2.2,12.9-7.1
	c5.4-5.5,12.9-12.9,27.1-12.9c14.1,0,21.6,7.4,27,12.9l0,0c4.9,4.9,7.3,7.1,12.9,7.1c5.6,0,8-2.2,12.9-7.1
	c5.4-5.5,12.9-12.9,27.1-12.9c14.1,0,21.6,7.5,27.1,12.9c1.1,1.1,2,2,2.9,2.9l0,22.8c-8-2.4-13.1-7.5-17.1-11.5
	c-4.9-4.9-7.3-7.1-12.9-7.1c-5.6,0-8,2.2-12.9,7.1l0,0c-5.5,5.5-12.9,12.9-27,12.9c-14.2,0-21.6-7.5-27.1-12.9
	c-4.9-4.9-7.3-7.1-12.9-7.1c-5.6,0-8,2.2-12.9,7.1c-5.4,5.5-12.9,12.9-27.1,12.9c-14.2,0-21.6-7.5-27.1-12.9
	C79,258.2,76.6,256,71,256c-5.6,0-8,2.2-12.9,7.1C52.6,268.5,45.1,276,31,276S9.4,268.5,3.9,263.1z"/>
<path class="st1" d="M163.9,263.1c-1.1-1.1-2-2-2.9-2.8v-22.8c8,2.4,13.1,7.5,17.1,11.5c4.9,4.9,7.3,7.1,12.9,7.1s8-2.2,12.9-7.1
	c5.5-5.5,12.9-12.9,27.1-12.9c14.1,0,21.6,7.5,27.1,12.9l0,0c4.9,4.9,7.3,7.1,12.9,7.1c5.6,0,8-2.2,12.9-7.1
	c5.4-5.5,12.9-12.9,27.1-12.9c14.1,0,21.6,7.4,27,12.9l0,0l-14.2,14.1c-4.9-4.9-7.3-7.1-12.9-7.1s-8,2.2-12.9,7.1
	c-5.5,5.5-12.9,12.9-27.1,12.9c-14.1,0-21.6-7.5-27.1-12.9c-4.9-4.9-7.3-7.1-12.9-7.1c-5.6,0-8,2.2-12.9,7.1
	c-5.5,5.5-12.9,12.9-27.1,12.9C176.9,276,169.4,268.5,163.9,263.1z"/>
<path class="st1" d="M323.9,263.1c-1.1-1.1-2-2-2.9-2.8v-22.8c8,2.4,13.1,7.5,17.1,11.5c4.9,4.9,7.3,7.1,12.9,7.1s8-2.2,12.9-7.1
	c5.5-5.5,12.9-12.9,27.1-12.9c14.1,0,21.6,7.5,27.1,12.9l0,0c4.9,4.9,7.3,7.1,12.9,7.1c5.6,0,8-2.2,12.9-7.1
	c5.4-5.5,12.9-12.9,27.1-12.9c14.1,0,21.6,7.4,27,12.9l0,0c4.9,4.9,7.3,7.1,12.9,7.1v20c-14.2,0-21.6-7.5-27.1-12.9
	c-4.9-4.9-7.3-7.1-12.9-7.1c-5.6,0-8,2.2-12.9,7.1c-5.4,5.5-12.9,12.9-27.1,12.9c-14.2,0-21.6-7.5-27.1-12.9
	c-4.9-4.9-7.3-7.1-12.9-7.1s-8,2.2-12.9,7.1c-5.5,5.5-12.9,12.9-27.1,12.9C336.9,276,329.4,268.5,323.9,263.1z"/>
</svg>
